svgs/solid/clipboard-medical.svg

<svg xmlns="http://www.w3.org/2000/svg" viewBox="0 0 384 512"><!-- Font Awesome Pro 6.0.0-alpha2 by @fontawesome - https://fontawesome.com License - https://fontawesome.com/license (Commercial License) --><path d="M336 64H282.121C268.896 26.799 233.738 0 192 0S115.104 26.799 101.879 64H48C21.5 64 0 85.484 0 112V464C0 490.516 21.5 512 48 512H336C362.5 512 384 490.516 384 464V112C384 85.484 362.5 64 336 64ZM192 64C209.674 64 224 78.326 224 96C224 113.672 209.674 128 192 128S160 113.672 160 96C160 78.326 174.326 64 192 64ZM288 336C288 344.799 280.801 352 272 352H224V400C224 408.799 216.801 416 208 416H176C167.199 416 160 408.799 160 400V352H112C103.199 352 96 344.799 96 336V304C96 295.199 103.199 288 112 288H160V240C160 231.199 167.199 224 176 224H208C216.801 224 224 231.199 224 240V288H272C280.801 288 288 295.199 288 304V336Z"/></svg>

<svg xmlns="http://www.w3.org/2000/svg" viewBox="0 0 384 512"><!--! Font Awesome Pro 6.0.0-alpha3 by @fontawesome - https://fontawesome.com License - https://fontawesome.com/license (Commercial License) --><path d="M336 64h-53.88C268.9 26.8 233.7 0 192 0S115.1 26.8 101.9 64H48C21.5 64 0 85.48 0 112v352C0 490.5 21.5 512 48 512h288c26.5 0 48-21.48 48-48v-352C384 85.48 362.5 64 336 64zM192 64c17.67 0 32 14.33 32 32c0 17.67-14.33 32-32 32S160 113.7 160 96C160 78.33 174.3 64 192 64zM288 336c0 8.799-7.199 16-16 16H224v48c0 8.799-7.199 16-16 16h-32C167.2 416 160 408.8 160 400V352H112C103.2 352 96 344.8 96 336v-32C96 295.2 103.2 288 112 288H160V240C160 231.2 167.2 224 176 224h32C216.8 224 224 231.2 224 240V288h48C280.8 288 288 295.2 288 304V336z"/></svg>
